shared/images/iconfont/kb-iconfont-close-16.svg

<?xml version="1.0" encoding="UTF-8"?>
<svg width="16px" height="16px" viewBox="0 0 16 16" version="1.1" xmlns="http://www.w3.org/2000/svg" xmlns:xlink="http://www.w3.org/1999/xlink">
    <!-- Generator: sketchtool 41.2 (35397) - http://www.bohemiancoding.com/sketch -->
    <title>69B5A15E-F038-4D62-AA66-63C1CB41EF90</title>
    <desc>Created with sketchtool.</desc>
    <defs></defs>
    <g id="Icons" stroke="none" stroke-width="1" fill="none" fill-rule="evenodd">
        <g id="Style-guide---Desktop---Icons-2" transform="translate(-401.000000, -1027.000000)">
            <g id="kb-iconfont-close-16" transform="translate(401.000000, 1027.000000)">
                <rect id="icon-area" fill="#D8D8D8" opacity="0" x="0" y="0" width="16" height="16"></rect>
                <path d="M2.71259081,5.0167732 C2.31903777,4.62322016 2.32038669,3.9837957 2.70385088,3.60033151 L3.60033151,2.70385088 C3.98905762,2.31512477 4.61928572,2.31510333 5.0167732,2.71259081 L8,5.69581761 L10.9832268,2.71259081 C11.3767798,2.31903777 12.0162043,2.32038669 12.3996685,2.70385088 L13.2961491,3.60033151 C13.6848752,3.98905762 13.6848967,4.61928572 13.2874092,5.0167732 L10.3041824,8 L13.2874092,10.9832268 C13.6809622,11.3767798 13.6796133,12.0162043 13.2961491,12.3996685 L12.3996685,13.2961491 C12.0109424,13.6848752 11.3807143,13.6848967 10.9832268,13.2874092 L8,10.3041824 L5.0167732,13.2874092 C4.62322016,13.6809622 3.9837957,13.6796133 3.60033151,13.2961491 L2.70385088,12.3996685 C2.31512477,12.0109424 2.31510333,11.3807143 2.71259081,10.9832268 L5.69581761,8 L2.71259081,5.0167732 Z" id="Close" fill="#000000"></path>
            </g>
        </g>
    </g>
</svg>

<svg xmlns="http://www.w3.org/2000/svg" width="16" height="16" viewBox="0 0 16 16">
    <path fill="#000" fill-rule="nonzero" d="M2.713 5.017a1.006 1.006 0 0 1-.01-1.417l.897-.896a.998.998 0 0 1 1.417.009L8 5.696l2.983-2.983a1.006 1.006 0 0 1 1.417-.01l.896.897a.998.998 0 0 1-.009 1.417L10.304 8l2.983 2.983c.394.394.393 1.033.01 1.417l-.897.896a.998.998 0 0 1-1.417-.009L8 10.304l-2.983 2.983a1.006 1.006 0 0 1-1.417.01l-.896-.897a.998.998 0 0 1 .009-1.417L5.696 8 2.713 5.017z"/>
</svg>
